public/images/icons/Logo.svg

<svg fill="none" height="56" viewBox="0 0 133 56" width="133" xmlns="http://www.w3.org/2000/svg"><g fill="#f9f9f9"><path d="m17.4105 24.3571-7.0696-21.43058h4.8584l5.1698 16.48268h-1.8997l5.0452-16.48268h3.8307l5.0453 16.48268h-1.8687l5.1387-16.48268h4.8273l-7.0696 21.43058h-3.8307l-5.0764-16.48273h1.8063l-5.0764 16.48273z"/><path d="m52.8079 24.7213c-1.661 0-3.1974-.2833-4.6093-.8499-1.3911-.5666-2.6161-1.3558-3.6749-2.3677-1.0589-1.0118-1.879-2.1855-2.4604-3.5211-.5813-1.3559-.872-2.8129-.872-4.3712 0-1.5784.2907-3.0354.872-4.37106.5814-1.33562 1.3911-2.49922 2.4292-3.49082 1.0381-1.01183 2.2527-1.79094 3.6438-2.33733 1.4119-.56662 2.9483-.84993 4.6093-.84993 1.6402 0 3.1559.28331 4.5469.84993 1.4119.54639 2.6369 1.3255 3.675 2.33733 1.0589.9916 1.879 2.16532 2.4603 3.52117.5814 1.33561.8721 2.79261.8721 4.37111 0 1.5582-.2907 3.0153-.8721 4.3711-.5813 1.3356-1.3911 2.5093-2.4292 3.5212-1.0381.9916-2.2631 1.7707-3.6749 2.3373-1.3911.5666-2.8964.8499-4.5158.8499zm-.0623-4.3407c1.308 0 2.4499-.2833 3.4258-.8499.9966-.5667 1.7648-1.3559 2.3046-2.3677.5398-1.0321.8097-2.2159.8097-3.5516 0-1.0118-.1557-1.9224-.4671-2.7319-.3115-.8297-.7579-1.53798-1.3392-2.12484-.5813-.6071-1.2769-1.06242-2.0866-1.36597-.789-.32379-1.6714-.48568-2.6472-.48568-1.3081 0-2.4604.28331-3.457.84994-.9758.54638-1.7336 1.32549-2.2735 2.33735-.5398.9916-.8097 2.1653-.8097 3.5211 0 1.0119.1557 1.9326.4672 2.7623.3114.8297.7474 1.5481 1.308 2.1552.5813.5869 1.2769 1.0422 2.0866 1.366.8098.3238 1.7025.4857 2.6784.4857z"/><path d="m71.141 15.5238v-3.5212h4.6404c.9758 0 1.7233-.2428 2.2423-.7285.5398-.4857.8097-1.1434.8097-1.97305 0-.76899-.2595-1.40645-.7785-1.91236-.5191-.50592-1.2666-.75888-2.2424-.75888h-4.6715v-3.70329h5.2321c1.4534 0 2.7303.27319 3.8307.81958 1.1004.52615 1.962 1.26479 2.5849 2.21591s.9343 2.04389.9343 3.27833c0 1.25466-.3114 2.35756-.9343 3.30866-.6229.9309-1.4949 1.6594-2.6161 2.1856-1.1211.5261-2.4396.7892-3.9552.7892zm-3.7373 8.8333v-21.43058h4.8896v21.43058zm11.9592 0-6.8516-9.2279 4.4847-1.1839 8.1596 10.4118z"/><path d="m87.2943 24.3571v-21.43058h4.8895v21.43058zm3.7684 0v-4.189h10.8693v4.189z"/><path d="m3.78556 44.456v-3.7559h4.7004c.98845 0 1.74554-.259 2.27134-.7771.5468-.518.8202-1.2196.8202-2.1046 0-.8202-.2629-1.5002-.7887-2.0398-.5257-.5397-1.28284-.8095-2.27129-.8095h-4.73195v-3.9502h5.29978c1.47216 0 2.76556.2914 3.88016.8742 1.1147.5613 1.9875 1.3491 2.6184 2.3637.6309 1.0145.9464 2.1801.9464 3.4969 0 1.3383-.3155 2.5147-.9464 3.5292-.6309.993-1.5142 1.7701-2.6499 2.3313s-2.4711.8418-4.00639.8418zm-3.78556 9.4222v-22.8593h4.95277v22.8593zm12.1138 0-6.9402-9.8431 4.54267-1.2628 8.26513 11.1059z"/><path d="m20.1477 53.8782v-22.8593h4.9528v22.8593zm3.7856 0v-4.4035h12.2084v4.4035zm0-9.5517v-4.2416h11.1043v4.2416zm0-8.9365v-4.3711h12.0507v4.3711z"/><path d="m49.7237 54.2344c-1.6615 0-3.2073-.2915-4.6374-.8743-1.409-.6044-2.6498-1.4462-3.7224-2.5255-1.0516-1.0793-1.8718-2.3313-2.4606-3.7559-.5889-1.4463-.8833-3.0004-.8833-4.6625s.2944-3.2055.8833-4.6302c.5888-1.4462 1.409-2.6982 2.4606-3.7559 1.0515-1.0577 2.2818-1.8779 3.6909-2.4607 1.4301-.6044 2.9759-.9066 4.6373-.9066 1.7666 0 3.3334.2914 4.7004.8742 1.388.5828 2.5973 1.3815 3.6278 2.396l-3.3123 3.4321c-.5889-.6476-1.3039-1.1548-2.1452-1.5218-.8202-.3669-1.7771-.5504-2.8707-.5504-.9674 0-1.8612.1727-2.6814.518-.7992.3238-1.4932.7987-2.0821 1.4247-.5678.626-1.02 1.3815-1.3565 2.2665-.3154.885-.4732 1.8564-.4732 2.9141 0 1.0793.1578 2.0614.4732 2.9464.3365.885.7887 1.6405 1.3565 2.2665.5889.626 1.2829 1.1117 2.0821 1.4571.8202.3453 1.714.518 2.6814.518 1.1357 0 2.1241-.1835 2.9654-.5504.8412-.367 1.5668-.8742 2.1767-1.5218l3.3439 3.4321c-1.0726 1.0145-2.3029 1.8132-3.691 2.396-1.367.5828-2.9548.8743-4.7634.8743z"/><path d="m70.6431 54.2667c-1.6825 0-3.2388-.3022-4.6689-.9066-1.4091-.6044-2.6499-1.4462-3.7225-2.5255-1.0725-1.0793-1.9033-2.3313-2.4921-3.7559-.5889-1.4463-.8833-3.0004-.8833-4.6625 0-1.6837.2944-3.2379.8833-4.6625.5888-1.4247 1.409-2.6659 2.4606-3.7236 1.0515-1.0793 2.2818-1.9103 3.6909-2.4931 1.4301-.6044 2.9864-.9066 4.6689-.9066 1.6614 0 3.1966.3022 4.6057.9066 1.4301.5828 2.6709 1.4138 3.7225 2.4931 1.0726 1.0577 1.9033 2.3097 2.4921 3.7559.5889 1.4247.8833 2.9789.8833 4.6626 0 1.6621-.2944 3.2162-.8833 4.6625-.5888 1.4246-1.409 2.6766-2.4606 3.7559-1.0515 1.0577-2.2923 1.8887-3.7224 2.4931-1.4091.6044-2.9338.9066-4.5742.9066zm-.0631-4.6301c1.3249 0 2.4816-.3022 3.4701-.9066 1.0094-.6044 1.7876-1.4462 2.3344-2.5255.5468-1.1009.8202-2.3637.8202-3.7883 0-1.0793-.1577-2.0507-.4732-2.9141-.3155-.885-.7676-1.6405-1.3565-2.2665-.5889-.6476-1.2934-1.1332-2.1136-1.457-.7992-.3454-1.693-.5181-2.6814-.5181-1.325 0-2.4922.3022-3.5017.9066-.9884.5828-1.7561 1.4139-2.3029 2.4932-.5468 1.0577-.8202 2.3096-.8202 3.7559 0 1.0793.1578 2.0614.4732 2.9464.3155.885.7571 1.6513 1.325 2.2989.5888.626 1.2934 1.1117 2.1136 1.457.8202.3454 1.7245.5181 2.713.5181z"/><path d="m89.2132 44.456v-3.7559h4.7004c.9885 0 1.7456-.259 2.2714-.7771.5468-.518.8202-1.2196.8202-2.1046 0-.8202-.2629-1.5002-.7887-2.0398-.5258-.5397-1.2829-.8095-2.2713-.8095h-4.732v-3.9502h5.2998c1.4722 0 2.7656.2914 3.8802.8742 1.1147.5613 1.9878 1.3491 2.6188 2.3637.63 1.0145.946 2.1801.946 3.4969 0 1.3383-.316 2.5147-.946 3.5292-.631.993-1.5147 1.7701-2.6503 2.3313-1.1357.5612-2.4712.8418-4.0064.8418zm-3.7855 9.4222v-22.8593h4.9527v22.8593zm12.1138 0-6.9402-9.8431 4.5426-1.2628 8.2651 11.1059z"/></g><path d="m116.552 5.19116h3.66769v3.66769h-3.66769z" fill="#fff"/><path d="m116.552 12.5269h3.66769v3.66769h-3.66769z" fill="#fff"/><path d="m116.552 8.85864h3.66769v3.66769h-3.66769z" fill="#000"/><path d="m116.552 16.1941h3.66769v3.66769h-3.66769z" fill="#000"/><path d="m120.22 5.19116h3.66769v3.66769h-3.66769z" fill="#000"/><path d="m120.22 12.5269h3.66769v3.66769h-3.66769z" fill="#000"/><path d="m120.22 8.85864h3.66769v3.66769h-3.66769z" fill="#fff"/><path d="m120.22 16.1941h3.66769v3.66769h-3.66769z" fill="#fff"/><path d="m123.887 5.19116h3.66769v3.66769h-3.66769z" fill="#fff"/><path d="m123.887 12.5269h3.66769v3.66769h-3.66769z" fill="#fff"/><path d="m123.887 8.85864h3.66769v3.66769h-3.66769z" fill="#000"/><path d="m123.887 16.1941h3.66769v3.66769h-3.66769z" fill="#000"/><path d="m116.552 19.8618h3.66769v3.66769h-3.66769z" fill="#fff"/><path d="m116.552 27.1975h3.66769v3.66769h-3.66769z" fill="#fff"/><path d="m116.552 23.5295h3.66769v3.66769h-3.66769z" fill="#000"/><path d="m116.552 30.8647h3.66769v3.66769h-3.66769z" fill="#000"/><path d="m120.22 19.8618h3.66769v3.66769h-3.66769z" fill="#000"/><path d="m120.22 27.1975h3.66769v3.66769h-3.66769z" fill="#000"/><path d="m120.22 23.5295h3.66769v3.66769h-3.66769z" fill="#fff"/><path d="m120.22 30.8647h3.66769v3.66769h-3.66769z" fill="#fff"/><path d="m123.887 19.8618h3.66769v3.66769h-3.66769z" fill="#fff"/><path d="m123.887 27.1975h3.66769v3.66769h-3.66769z" fill="#fff"/><path d="m123.887 23.5295h3.66769v3.66769h-3.66769z" fill="#000"/><path d="m123.887 30.8647h3.66769v3.66769h-3.66769z" fill="#000"/><path d="m116.552 34.5325h3.66769v3.66769h-3.66769z" fill="#fff"/><path d="m116.552 41.8679h3.66769v3.66769h-3.66769z" fill="#fff"/><path d="m116.552 38.2004h3.66769v3.66769h-3.66769z" fill="#000"/><path d="m116.552 45.5356h3.66769v3.66769h-3.66769z" fill="#000"/><path d="m120.22 34.5325h3.66769v3.66769h-3.66769z" fill="#000"/><path d="m120.22 41.8679h3.66769v3.66769h-3.66769z" fill="#000"/><path d="m120.22 38.2004h3.66769v3.66769h-3.66769z" fill="#fff"/><path d="m120.22 45.5356h3.66769v3.66769h-3.66769z" fill="#fff"/><path d="m123.887 34.5325h3.66769v3.66769h-3.66769z" fill="#fff"/><path d="m123.887 41.8679h3.66769v3.66769h-3.66769z" fill="#fff"/><path d="m123.887 38.2004h3.66769v3.66769h-3.66769z" fill="#000"/><path d="m123.887 45.5356h3.66769v3.66769h-3.66769z" fill="#000"/><path d="m116.552 49.2036h3.66769v3.66769h-3.66769z" fill="#fff"/><path d="m120.22 49.2036h3.66769v3.66769h-3.66769z" fill="#000"/><path d="m123.887 49.2036h3.66769v3.66769h-3.66769z" fill="#fff"/><path d="m114.107 2.74585h11.461c2.448 0 4.432 1.98419 4.432 4.43182v41.26143c0 2.4476-1.984 4.4318-4.432 4.4318h-11.461z" stroke="#f9f9f9" stroke-width="4.89025"/></svg>

<svg width="133" height="56" viewBox="0 0 133 56" fill="none" xmlns="http://www.w3.org/2000/svg">
<path d="M17.4105 24.3571L10.3409 2.92652H15.1993L20.3691 19.4092H18.4694L23.5146 2.92652H27.3453L32.3906 19.4092H30.5219L35.6606 2.92652H40.4879L33.4183 24.3571H29.5876L24.5112 7.87437H26.3175L21.2411 24.3571H17.4105Z" fill="#F9F9F9"/>
<path d="M52.8079 24.7213C51.1469 24.7213 49.6105 24.438 48.1986 23.8714C46.8075 23.3048 45.5825 22.5156 44.5237 21.5037C43.4648 20.4919 42.6447 19.3182 42.0633 17.9826C41.482 16.6267 41.1913 15.1697 41.1913 13.6114C41.1913 12.033 41.482 10.576 42.0633 9.24034C42.6447 7.90472 43.4544 6.74112 44.4925 5.74952C45.5306 4.73769 46.7452 3.95858 48.1363 3.41219C49.5482 2.84557 51.0846 2.56226 52.7456 2.56226C54.3858 2.56226 55.9015 2.84557 57.2925 3.41219C58.7044 3.95858 59.9294 4.73769 60.9675 5.74952C62.0264 6.74112 62.8465 7.91484 63.4278 9.27069C64.0092 10.6063 64.2999 12.0633 64.2999 13.6418C64.2999 15.2 64.0092 16.6571 63.4278 18.0129C62.8465 19.3485 62.0367 20.5222 60.9986 21.5341C59.9605 22.5257 58.7355 23.3048 57.3237 23.8714C55.9326 24.438 54.4273 24.7213 52.8079 24.7213ZM52.7456 20.3806C54.0536 20.3806 55.1955 20.0973 56.1714 19.5307C57.168 18.964 57.9362 18.1748 58.476 17.163C59.0158 16.1309 59.2857 14.9471 59.2857 13.6114C59.2857 12.5996 59.13 11.689 58.8186 10.8795C58.5071 10.0498 58.0607 9.34152 57.4794 8.75466C56.8981 8.14756 56.2025 7.69224 55.3928 7.38869C54.6038 7.0649 53.7214 6.90301 52.7456 6.90301C51.4375 6.90301 50.2852 7.18632 49.2886 7.75295C48.3128 8.29933 47.555 9.07844 47.0151 10.0903C46.4753 11.0819 46.2054 12.2556 46.2054 13.6114C46.2054 14.6233 46.3611 15.544 46.6726 16.3737C46.984 17.2034 47.42 17.9218 47.9806 18.5289C48.5619 19.1158 49.2575 19.5711 50.0672 19.8949C50.877 20.2187 51.7697 20.3806 52.7456 20.3806Z" fill="#F9F9F9"/>
<path d="M71.141 15.5238V12.0026H75.7814C76.7572 12.0026 77.5047 11.7598 78.0237 11.2741C78.5635 10.7884 78.8334 10.1307 78.8334 9.30105C78.8334 8.53206 78.5739 7.8946 78.0549 7.38869C77.5358 6.88277 76.7883 6.62981 75.8125 6.62981H71.141V2.92652H76.3731C77.8265 2.92652 79.1034 3.19971 80.2038 3.7461C81.3042 4.27225 82.1658 5.01089 82.7887 5.96201C83.4116 6.91313 83.723 8.0059 83.723 9.24034C83.723 10.495 83.4116 11.5979 82.7887 12.549C82.1658 13.4799 81.2938 14.2084 80.1726 14.7346C79.0515 15.2607 77.733 15.5238 76.2174 15.5238H71.141ZM67.4037 24.3571V2.92652H72.2933V24.3571H67.4037ZM79.3629 24.3571L72.5113 15.1292L76.996 13.9453L85.1556 24.3571H79.3629Z" fill="#F9F9F9"/>
<path d="M87.2943 24.3571V2.92652H92.1838V24.3571H87.2943ZM91.0627 24.3571V20.1681H101.932V24.3571H91.0627Z" fill="#F9F9F9"/>
<path d="M3.78556 44.456V40.7001H8.48596C9.47441 40.7001 10.2315 40.4411 10.7573 39.923C11.3041 39.405 11.5775 38.7034 11.5775 37.8184C11.5775 36.9982 11.3146 36.3182 10.7888 35.7786C10.2631 35.2389 9.50596 34.9691 8.51751 34.9691H3.78556V31.0189H9.08534C10.5575 31.0189 11.8509 31.3103 12.9655 31.8931C14.0802 32.4544 14.953 33.2422 15.5839 34.2568C16.2148 35.2713 16.5303 36.4369 16.5303 37.7537C16.5303 39.092 16.2148 40.2684 15.5839 41.2829C14.953 42.2759 14.0697 43.053 12.934 43.6142C11.7983 44.1754 10.4629 44.456 8.92761 44.456H3.78556ZM0 53.8782V31.0189H4.95277V53.8782H0ZM12.1138 53.8782L5.1736 44.0351L9.71627 42.7723L17.9814 53.8782H12.1138Z" fill="#F9F9F9"/>
<path d="M20.1477 53.8782V31.0189H25.1005V53.8782H20.1477ZM23.9333 53.8782V49.4747H36.1417V53.8782H23.9333ZM23.9333 44.3265V40.0849H35.0376V44.3265H23.9333ZM23.9333 35.39V31.0189H35.984V35.39H23.9333Z" fill="#F9F9F9"/>
<path d="M49.7237 54.2344C48.0622 54.2344 46.5164 53.9429 45.0863 53.3601C43.6773 52.7557 42.4365 51.9139 41.3639 50.8346C40.3123 49.7553 39.4921 48.5033 38.9033 47.0787C38.3144 45.6324 38.02 44.0783 38.02 42.4162C38.02 40.7541 38.3144 39.2107 38.9033 37.786C39.4921 36.3398 40.3123 35.0878 41.3639 34.0301C42.4154 32.9724 43.6457 32.1522 45.0548 31.5694C46.4849 30.965 48.0307 30.6628 49.6921 30.6628C51.4587 30.6628 53.0255 30.9542 54.3925 31.537C55.7805 32.1198 56.9898 32.9185 58.0203 33.933L54.708 37.3651C54.1191 36.7175 53.4041 36.2103 52.5628 35.8433C51.7426 35.4764 50.7857 35.2929 49.6921 35.2929C48.7247 35.2929 47.8309 35.4656 47.0107 35.8109C46.2115 36.1347 45.5175 36.6096 44.9286 37.2356C44.3608 37.8616 43.9086 38.6171 43.5721 39.5021C43.2567 40.3871 43.0989 41.3585 43.0989 42.4162C43.0989 43.4955 43.2567 44.4776 43.5721 45.3626C43.9086 46.2476 44.3608 47.0031 44.9286 47.6291C45.5175 48.2551 46.2115 48.7408 47.0107 49.0862C47.8309 49.4315 48.7247 49.6042 49.6921 49.6042C50.8278 49.6042 51.8162 49.4207 52.6575 49.0538C53.4987 48.6868 54.2243 48.1796 54.8342 47.532L58.1781 50.9641C57.1055 51.9786 55.8752 52.7773 54.4871 53.3601C53.1201 53.9429 51.5323 54.2344 49.7237 54.2344Z" fill="#F9F9F9"/>
<path d="M70.6431 54.2667C68.9606 54.2667 67.4043 53.9645 65.9742 53.3601C64.5651 52.7557 63.3243 51.9139 62.2517 50.8346C61.1792 49.7553 60.3484 48.5033 59.7596 47.0787C59.1707 45.6324 58.8763 44.0783 58.8763 42.4162C58.8763 40.7325 59.1707 39.1783 59.7596 37.7537C60.3484 36.329 61.1686 35.0878 62.2202 34.0301C63.2717 32.9508 64.502 32.1198 65.9111 31.537C67.3412 30.9326 68.8975 30.6304 70.58 30.6304C72.2414 30.6304 73.7766 30.9326 75.1857 31.537C76.6158 32.1198 77.8566 32.9508 78.9082 34.0301C79.9808 35.0878 80.8115 36.3398 81.4003 37.786C81.9892 39.2107 82.2836 40.7649 82.2836 42.4486C82.2836 44.1107 81.9892 45.6648 81.4003 47.1111C80.8115 48.5357 79.9913 49.7877 78.9397 50.867C77.8882 51.9247 76.6474 52.7557 75.2173 53.3601C73.8082 53.9645 72.2835 54.2667 70.6431 54.2667ZM70.58 49.6366C71.9049 49.6366 73.0616 49.3344 74.0501 48.73C75.0595 48.1256 75.8377 47.2838 76.3845 46.2045C76.9313 45.1036 77.2047 43.8408 77.2047 42.4162C77.2047 41.3369 77.047 40.3655 76.7315 39.5021C76.416 38.6171 75.9639 37.8616 75.375 37.2356C74.7861 36.588 74.0816 36.1024 73.2614 35.7786C72.4622 35.4332 71.5684 35.2605 70.58 35.2605C69.255 35.2605 68.0878 35.5627 67.0783 36.1671C66.0899 36.7499 65.3222 37.581 64.7754 38.6603C64.2286 39.718 63.9552 40.9699 63.9552 42.4162C63.9552 43.4955 64.113 44.4776 64.4284 45.3626C64.7439 46.2476 65.1855 47.0139 65.7534 47.6615C66.3422 48.2875 67.0468 48.7732 67.867 49.1185C68.6872 49.4639 69.5915 49.6366 70.58 49.6366Z" fill="#F9F9F9"/>
<path d="M89.2132 44.456V40.7001H93.9136C94.9021 40.7001 95.6592 40.4411 96.185 39.923C96.7318 39.405 97.0052 38.7034 97.0052 37.8184C97.0052 36.9982 96.7423 36.3182 96.2165 35.7786C95.6907 35.2389 94.9336 34.9691 93.9452 34.9691H89.2132V31.0189H94.513C95.9852 31.0189 97.2786 31.3103 98.3932 31.8931C99.5079 32.4544 100.381 33.2422 101.012 34.2568C101.642 35.2713 101.958 36.4369 101.958 37.7537C101.958 39.092 101.642 40.2684 101.012 41.2829C100.381 42.2759 99.4973 43.053 98.3617 43.6142C97.226 44.1754 95.8905 44.456 94.3553 44.456H89.2132ZM85.4277 53.8782V31.0189H90.3804V53.8782H85.4277ZM97.5415 53.8782L90.6013 44.0351L95.1439 42.7723L103.409 53.8782H97.5415Z" fill="#F9F9F9"/>
<rect x="116.552" y="5.19116" width="3.66769" height="3.66769" fill="white"/>
<rect x="116.552" y="12.5269" width="3.66769" height="3.66769" fill="white"/>
<rect x="116.552" y="8.85864" width="3.66769" height="3.66769" fill="black"/>
<rect x="116.552" y="16.1941" width="3.66769" height="3.66769" fill="black"/>
<rect x="120.22" y="5.19116" width="3.66769" height="3.66769" fill="black"/>
<rect x="120.22" y="12.5269" width="3.66769" height="3.66769" fill="black"/>
<rect x="120.22" y="8.85864" width="3.66769" height="3.66769" fill="white"/>
<rect x="120.22" y="16.1941" width="3.66769" height="3.66769" fill="white"/>
<rect x="123.887" y="5.19116" width="3.66769" height="3.66769" fill="white"/>
<rect x="123.887" y="12.5269" width="3.66769" height="3.66769" fill="white"/>
<rect x="123.887" y="8.85864" width="3.66769" height="3.66769" fill="black"/>
<rect x="123.887" y="16.1941" width="3.66769" height="3.66769" fill="black"/>
<rect x="116.552" y="19.8618" width="3.66769" height="3.66769" fill="white"/>
<rect x="116.552" y="27.1975" width="3.66769" height="3.66769" fill="white"/>
<rect x="116.552" y="23.5295" width="3.66769" height="3.66769" fill="black"/>
<rect x="116.552" y="30.8647" width="3.66769" height="3.66769" fill="black"/>
<rect x="120.22" y="19.8618" width="3.66769" height="3.66769" fill="black"/>
<rect x="120.22" y="27.1975" width="3.66769" height="3.66769" fill="black"/>
<rect x="120.22" y="23.5295" width="3.66769" height="3.66769" fill="white"/>
<rect x="120.22" y="30.8647" width="3.66769" height="3.66769" fill="white"/>
<rect x="123.887" y="19.8618" width="3.66769" height="3.66769" fill="white"/>
<rect x="123.887" y="27.1975" width="3.66769" height="3.66769" fill="white"/>
<rect x="123.887" y="23.5295" width="3.66769" height="3.66769" fill="black"/>
<rect x="123.887" y="30.8647" width="3.66769" height="3.66769" fill="black"/>
<rect x="116.552" y="34.5325" width="3.66769" height="3.66769" fill="white"/>
<rect x="116.552" y="41.8679" width="3.66769" height="3.66769" fill="white"/>
<rect x="116.552" y="38.2004" width="3.66769" height="3.66769" fill="black"/>
<rect x="116.552" y="45.5356" width="3.66769" height="3.66769" fill="black"/>
<rect x="120.22" y="34.5325" width="3.66769" height="3.66769" fill="black"/>
<rect x="120.22" y="41.8679" width="3.66769" height="3.66769" fill="black"/>
<rect x="120.22" y="38.2004" width="3.66769" height="3.66769" fill="white"/>
<rect x="120.22" y="45.5356" width="3.66769" height="3.66769" fill="white"/>
<rect x="123.887" y="34.5325" width="3.66769" height="3.66769" fill="white"/>
<rect x="123.887" y="41.8679" width="3.66769" height="3.66769" fill="white"/>
<rect x="123.887" y="38.2004" width="3.66769" height="3.66769" fill="black"/>
<rect x="123.887" y="45.5356" width="3.66769" height="3.66769" fill="black"/>
<rect x="116.552" y="49.2036" width="3.66769" height="3.66769" fill="white"/>
<rect x="120.22" y="49.2036" width="3.66769" height="3.66769" fill="black"/>
<rect x="123.887" y="49.2036" width="3.66769" height="3.66769" fill="white"/>
<path d="M114.107 2.74585H125.568C128.016 2.74585 130 4.73004 130 7.17767V48.4391C130 50.8867 128.016 52.8709 125.568 52.8709H114.107V2.74585Z" stroke="#F9F9F9" stroke-width="4.89025"/>
</svg>
